; G-Code generated by Simplify3D(R) Version 4.1.2
; Apr 4, 2021 at 9:11:44 PM
; Settings Summary
;   processName,Process1
;   applyToModels,string_test_fast_pyramid
;   profileName,Wanhao Duplicator i3 Plus (modified)
;   profileVersion,2019-10-02 22:23:59
;   baseProfile,
;   printMaterial,PLA
;   printQuality,Medium
;   printExtruders,
;   extruderName,Primary Extruder
;   extruderToolheadNumber,0
;   extruderDiameter,0.4
;   extruderAutoWidth,0
;   extruderWidth,0.4
;   extrusionMultiplier,0.9
;   extruderUseRetract,1
;   extruderRetractionDistance,0.5
;   extruderExtraRestartDistance,0
;   extruderRetractionZLift,0.25
;   extruderRetractionSpeed,6000
;   extruderUseCoasting,0
;   extruderCoastingDistance,0.3
;   extruderUseWipe,0
;   extruderWipeDistance,5
;   primaryExtruder,0
;   layerHeight,0.2
;   topSolidLayers,4
;   bottomSolidLayers,3
;   perimeterOutlines,2
;   printPerimetersInsideOut,1
;   startPointOption,2
;   startPointOriginX,0
;   startPointOriginY,0
;   sequentialIslands,0
;   spiralVaseMode,0
;   firstLayerHeightPercentage,90
;   firstLayerWidthPercentage,100
;   firstLayerUnderspeed,0.5
;   useRaft,0
;   raftExtruder,0
;   raftTopLayers,3
;   raftBaseLayers,2
;   raftOffset,3
;   raftSeparationDistance,0.14
;   raftTopInfill,100
;   aboveRaftSpeedMultiplier,0.3
;   useSkirt,1
;   skirtExtruder,0
;   skirtLayers,1
;   skirtOutlines,3
;   skirtOffset,3
;   usePrimePillar,0
;   primePillarExtruder,999
;   primePillarWidth,12
;   primePillarLocation,7
;   primePillarSpeedMultiplier,1
;   useOozeShield,0
;   oozeShieldExtruder,999
;   oozeShieldOffset,2
;   oozeShieldOutlines,1
;   oozeShieldSidewallShape,1
;   oozeShieldSidewallAngle,30
;   oozeShieldSpeedMultiplier,1
;   infillExtruder,0
;   internalInfillPattern,Rectilinear
;   externalInfillPattern,Rectilinear
;   infillPercentage,25
;   outlineOverlapPercentage,25
;   infillExtrusionWidthPercentage,125
;   minInfillLength,5
;   infillLayerInterval,1
;   internalInfillAngles,45,-45
;   overlapInternalInfillAngles,0
;   externalInfillAngles,45,-45
;   generateSupport,0
;   supportExtruder,0
;   supportInfillPercentage,25
;   supportExtraInflation,0
;   supportBaseLayers,0
;   denseSupportExtruder,0
;   denseSupportLayers,0
;   denseSupportInfillPercentage,70
;   supportLayerInterval,1
;   supportHorizontalPartOffset,0.3
;   supportUpperSeparationLayers,1
;   supportLowerSeparationLayers,1
;   supportType,0
;   supportGridSpacing,4
;   maxOverhangAngle,45
;   supportAngles,0
;   temperatureName,Primary Extruder,Heated Bed
;   temperatureNumber,0,0
;   temperatureSetpointCount,1,1
;   temperatureSetpointLayers,1,1
;   temperatureSetpointTemperatures,175,60
;   temperatureStabilizeAtStartup,1,1
;   temperatureHeatedBed,0,1
;   fanLayers,1,2
;   fanSpeeds,0,100
;   blipFanToFullPower,0
;   adjustSpeedForCooling,1
;   minSpeedLayerTime,15
;   minCoolingSpeedSlowdown,10
;   increaseFanForCooling,0
;   minFanLayerTime,45
;   maxCoolingFanSpeed,100
;   increaseFanForBridging,0
;   bridgingFanSpeed,100
;   use5D,1
;   relativeEdistances,0
;   allowEaxisZeroing,1
;   independentExtruderAxes,0
;   includeM10123,0
;   stickySupport,1
;   applyToolheadOffsets,0
;   gcodeXoffset,0
;   gcodeYoffset,0
;   gcodeZoffset,0
;   overrideMachineDefinition,1
;   machineTypeOverride,0
;   strokeXoverride,200
;   strokeYoverride,200
;   strokeZoverride,180
;   originOffsetXoverride,0
;   originOffsetYoverride,0
;   originOffsetZoverride,0
;   homeXdirOverride,-1
;   homeYdirOverride,-1
;   homeZdirOverride,-1
;   flipXoverride,1
;   flipYoverride,-1
;   flipZoverride,1
;   toolheadOffsets,0,0|0,0|0,0|0,0|0,0|0,0
;   overrideFirmwareConfiguration,1
;   firmwareTypeOverride,RepRap (Marlin/Repetier/Sprinter)
;   GPXconfigOverride,r2
;   baudRateOverride,115200
;   overridePrinterModels,1
;   printerModelsOverride
;   startingGcode,START_PRINT BED_TEMP=[bed0_temperature] EXTRUDER_TEMP=[extruder0_temperature]
;   layerChangeGcode,
;   retractionGcode,
;   toolChangeGcode,
;   endingGcode,END_PRINT
;   exportFileFormat,gcode
;   celebration,0
;   celebrationSong,Random Song
;   postProcessing,
;   defaultSpeed,3600
;   outlineUnderspeed,0.5
;   solidInfillUnderspeed,0.8
;   supportUnderspeed,0.8
;   rapidXYspeed,4800
;   rapidZspeed,1000
;   minBridgingArea,50
;   bridgingExtraInflation,0
;   bridgingExtrusionMultiplier,1
;   bridgingSpeedMultiplier,1
;   useFixedBridgingAngle,0
;   fixedBridgingAngle,0
;   applyBridgingToPerimeters,0
;   filamentDiameters,1.75|1.75|1.75|1.75|1.75|1.75
;   filamentPricesPerKg,46|46|46|46|46|46
;   filamentDensities,1.25|1.25|1.25|1.25|1.25|1.25
;   useMinPrintHeight,0
;   minPrintHeight,8
;   useMaxPrintHeight,0
;   maxPrintHeight,36
;   useDiaphragm,0
;   diaphragmLayerInterval,20
;   robustSlicing,1
;   mergeAllIntoSolid,0
;   onlyRetractWhenCrossingOutline,1
;   retractBetweenLayers,1
;   useRetractionMinTravel,0
;   retractionMinTravel,3
;   retractWhileWiping,0
;   onlyWipeOutlines,1
;   avoidCrossingOutline,0
;   maxMovementDetourFactor,3
;   toolChangeRetractionDistance,12
;   toolChangeExtraRestartDistance,-0.5
;   toolChangeRetractionSpeed,600
;   externalThinWallType,0
;   internalThinWallType,2
;   thinWallAllowedOverlapPercentage,10
;   singleExtrusionMinLength,1
;   singleExtrusionMinPrintingWidthPercentage,50
;   singleExtrusionMaxPrintingWidthPercentage,200
;   singleExtrusionEndpointExtension,0.2
;   horizontalSizeCompensation,0
G90
M82
M106 S0
START_PRINT BED_TEMP=60 EXTRUDER_TEMP=TRIAL_TEMP
; process Process1
; layer 1, Z = 0.180
T0
G92 E0.0000
G1 E-0.5000 F6000
; feature skirt
; tool H0.180 W0.400
G1 Z0.250 F1000
G1 X88.343 Y92.000 F4800
G1 Z0.180 F1000
G1 E0.0000 F6000
G92 E0.0000
G1 X111.657 Y92.000 E0.6281 F1800
G1 X114.000 Y94.343 E0.7174
G1 X114.000 Y105.657 E1.0222
G1 X111.657 Y108.000 E1.1114
G1 X88.343 Y108.000 E1.7395
G1 X86.000 Y105.657 E1.8288
G1 X86.000 Y94.343 E2.1336
G1 X88.343 Y92.000 E2.2229
G92 E0.0000
G1 E-0.5000 F6000
G1 Z0.430 F1000
G1 X88.509 Y92.400 F4800
G1 Z0.180 F1000
G1 E0.0000 F6000
G92 E0.0000
G1 X111.491 Y92.400 E0.6192 F1800
G1 X113.600 Y94.509 E0.6995
G1 X113.600 Y105.491 E0.9954
G1 X111.491 Y107.600 E1.0757
G1 X88.509 Y107.600 E1.6949
G1 X86.400 Y105.491 E1.7752
G1 X86.400 Y94.509 E2.0711
G1 X88.509 Y92.400 E2.1515
G92 E0.0000
G1 E-0.5000 F6000
G1 Z0.430 F1000
G1 X88.675 Y92.800 F4800
G1 Z0.180 F1000
G1 E0.0000 F6000
G92 E0.0000
G1 X111.325 Y92.800 E0.6102 F1800
G1 X113.200 Y94.675 E0.6817
G1 X113.200 Y105.325 E0.9686
G1 X111.325 Y107.200 E1.0400
G1 X88.675 Y107.200 E1.6502
G1 X86.800 Y105.325 E1.7217
G1 X86.800 Y94.675 E2.0086
G1 X88.675 Y92.800 E2.0800
G92 E0.0000
G1 E-0.5000 F6000
; feature inner perimeter
G1 Z0.430 F1000
G1 X90.600 Y96.600 F4800
G1 Z0.180 F1000
G1 E0.0000 F6000
G92 E0.0000
G1 X109.400 Y96.600 E0.5065 F1350
G1 X109.400 Y103.400 E0.6897
G1 X90.600 Y103.400 E1.1962
G1 X90.600 Y96.600 E1.3794
; feature outer perimeter
G1 X90.200 Y96.200 F4800
G92 E0.0000
G1 X109.800 Y96.200 E0.5280 F900
G1 X109.800 Y103.800 E0.7328
G1 X90.200 Y103.800 E1.2608
G1 X90.200 Y96.200 E1.4656
; feature solid layer
G1 X91.221 Y103.100 F4800
G92 E0.0000
G1 X90.900 Y102.779 E0.0122 F1440
G1 X90.900 Y102.214 E0.0275
G1 X91.786 Y103.100 E0.0612
G1 X92.352 Y103.100 E0.0765
G1 X90.900 Y101.648 E0.1318
G1 X90.900 Y101.082 E0.1470
G1 X92.918 Y103.100 E0.2239
G1 X93.483 Y103.100 E0.2391
G1 X90.900 Y100.517 E0.3376
G1 X90.900 Y99.951 E0.3528
G1 X94.049 Y103.100 E0.4728
G1 X94.615 Y103.100 E0.4880
G1 X90.900 Y99.385 E0.6296
G1 X90.900 Y98.820 E0.6448
G1 X95.180 Y103.100 E0.8079
G1 X95.746 Y103.100 E0.8231
G1 X90.900 Y98.254 E1.0078
G1 X90.900 Y97.688 E1.0230
G1 X96.312 Y103.100 E1.2292
G1 X96.877 Y103.100 E1.2444
G1 X90.900 Y97.123 E1.4722
G1 X90.900 Y96.900 E1.4782
G1 X91.243 Y96.900 E1.4874
G1 X97.443 Y103.100 E1.7236
G1 X98.009 Y103.100 E1.7389
G1 X91.809 Y96.900 E1.9751
G1 X92.375 Y96.900 E1.9903
G1 X98.575 Y103.100 E2.2265
G1 X99.140 Y103.100 E2.2418
G1 X92.940 Y96.900 E2.4780
G1 X93.506 Y96.900 E2.4932
G1 X99.706 Y103.100 E2.7295
G1 X100.272 Y103.100 E2.7447
G1 X94.072 Y96.900 E2.9809
G1 X94.637 Y96.900 E2.9962
G1 X100.837 Y103.100 E3.2324
G1 X101.403 Y103.100 E3.2476
G1 X95.203 Y96.900 E3.4838
G1 X95.769 Y96.900 E3.4991
G1 X101.969 Y103.100 E3.7353
G1 X102.534 Y103.100 E3.7505
G1 X96.334 Y96.900 E3.9868
G1 X96.900 Y96.900 E4.0020
G1 X103.100 Y103.100 E4.2382
G1 X103.666 Y103.100 E4.2535
G1 X97.466 Y96.900 E4.4897
G1 X98.031 Y96.900 E4.5049
G1 X104.231 Y103.100 E4.7411
G1 X104.797 Y103.100 E4.7564
G1 X98.597 Y96.900 E4.9926
G1 X99.163 Y96.900 E5.0078
G1 X105.363 Y103.100 E5.2441
G1 X105.928 Y103.100 E5.2593
G1 X99.728 Y96.900 E5.4955
G1 X100.294 Y96.900 E5.5108
G1 X106.494 Y103.100 E5.7470
G1 X107.060 Y103.100 E5.7622
G1 X100.860 Y96.900 E5.9984
G1 X101.425 Y96.900 E6.0137
G1 X107.625 Y103.100 E6.2499
G1 X108.191 Y103.100 E6.2651
G1 X101.991 Y96.900 E6.5014
G1 X102.557 Y96.900 E6.5166
G1 X108.757 Y103.100 E6.7528
G1 X109.100 Y103.100 E6.7621
G1 X109.100 Y102.877 E6.7681
G1 X103.123 Y96.900 E6.9958
G1 X103.688 Y96.900 E7.0110
G1 X109.100 Y102.312 E7.2172
G1 X109.100 Y101.746 E7.2325
G1 X104.254 Y96.900 E7.4171
G1 X104.820 Y96.900 E7.4323
G1 X109.100 Y101.180 E7.5954
G1 X109.100 Y100.615 E7.6107
G1 X105.385 Y96.900 E7.7522
G1 X105.951 Y96.900 E7.7674
G1 X109.100 Y100.049 E7.8874
G1 X109.100 Y99.483 E7.9026
G1 X106.517 Y96.900 E8.0011
G1 X107.082 Y96.900 E8.0163
G1 X109.100 Y98.918 E8.0932
G1 X109.100 Y98.352 E8.1084
G1 X107.648 Y96.900 E8.1637
G1 X108.214 Y96.900 E8.1790
G1 X109.100 Y97.786 E8.2127
G1 X109.100 Y97.221 E8.2280
G1 X108.779 Y96.900 E8.2402
G92 E0.0000
G1 E-0.5000 F6000
; layer 2, Z = 0.380
M106 S255
; feature inner perimeter
; tool H0.200 W0.400
G1 Z0.430 F1000
G1 X109.400 Y96.600 F4800
G1 Z0.380 F1000
G1 E0.0000 F6000
G92 E0.0000
G1 X109.400 Y103.400 E0.2036 F1678
G1 X90.600 Y103.400 E0.7663
G1 X90.600 Y96.600 E0.9699
G1 X109.400 Y96.600 E1.5326
; feature outer perimeter
G1 X109.800 Y96.200 F4800
G92 E0.0000
G1 X109.800 Y103.800 E0.2275 F1119
G1 X90.200 Y103.800 E0.8142
G1 X90.200 Y96.200 E1.0417
G1 X109.800 Y96.200 E1.6284
; feature solid layer
G1 X109.100 Y102.779 F4800
G92 E0.0000
G1 X108.779 Y103.100 E0.0136 F1790
G1 X108.214 Y103.100 E0.0305
G1 X109.100 Y102.214 E0.0680
G1 X109.100 Y101.648 E0.0850
G1 X107.648 Y103.100 E0.1464
G1 X107.082 Y103.100 E0.1634
G1 X109.100 Y101.082 E0.2488
G1 X109.100 Y100.517 E0.2657
G1 X106.517 Y103.100 E0.3751
G1 X105.951 Y103.100 E0.3920
G1 X109.100 Y99.951 E0.5253
G1 X109.100 Y99.385 E0.5422
G1 X105.385 Y103.100 E0.6995
G1 X104.820 Y103.100 E0.7164
G1 X109.100 Y98.820 E0.8976
G1 X109.100 Y98.254 E0.9146
G1 X104.254 Y103.100 E1.1197
G1 X103.688 Y103.100 E1.1366
G1 X109.100 Y97.688 E1.3657
G1 X109.100 Y97.123 E1.3827
G1 X103.123 Y103.100 E1.6357
G1 X102.557 Y103.100 E1.6526
G1 X108.757 Y96.900 E1.9151
G1 X108.191 Y96.900 E1.9320
G1 X101.991 Y103.100 E2.1945
G1 X101.426 Y103.100 E2.2114
G1 X107.626 Y96.900 E2.4739
G1 X107.060 Y96.900 E2.4908
G1 X100.860 Y103.100 E2.7533
G1 X100.294 Y103.100 E2.7702
G1 X106.494 Y96.900 E3.0327
G1 X105.928 Y96.900 E3.0496
G1 X99.728 Y103.100 E3.3121
G1 X99.163 Y103.100 E3.3290
G1 X105.363 Y96.900 E3.5915
G1 X104.797 Y96.900 E3.6084
G1 X98.597 Y103.100 E3.8709
G1 X98.031 Y103.100 E3.8878
G1 X104.231 Y96.900 E4.1503
G1 X103.666 Y96.900 E4.1672
G1 X97.466 Y103.100 E4.4297
G1 X96.900 Y103.100 E4.4466
G1 X103.100 Y96.900 E4.7091
G1 X102.534 Y96.900 E4.7260
G1 X96.334 Y103.100 E4.9885
G1 X95.769 Y103.100 E5.0054
G1 X101.969 Y96.900 E5.2679
G1 X101.403 Y96.900 E5.2848
G1 X95.203 Y103.100 E5.5473
G1 X94.637 Y103.100 E5.5642
G1 X100.837 Y96.900 E5.8267
G1 X100.272 Y96.900 E5.8436
G1 X94.072 Y103.100 E6.1061
G1 X93.506 Y103.100 E6.1230
G1 X99.706 Y96.900 E6.3855
G1 X99.140 Y96.900 E6.4024
G1 X92.940 Y103.100 E6.6649
G1 X92.375 Y103.100 E6.6818
G1 X98.575 Y96.900 E6.9443
G1 X98.009 Y96.900 E6.9612
G1 X91.809 Y103.100 E7.2237
G1 X91.243 Y103.100 E7.2406
G1 X97.443 Y96.900 E7.5031
G1 X96.877 Y96.900 E7.5200
G1 X90.900 Y102.877 E7.7731
G1 X90.900 Y102.312 E7.7900
G1 X96.312 Y96.900 E8.0191
G1 X95.746 Y96.900 E8.0360
G1 X90.900 Y101.746 E8.2412
G1 X90.900 Y101.180 E8.2581
G1 X95.180 Y96.900 E8.4393
G1 X94.615 Y96.900 E8.4563
G1 X90.900 Y100.615 E8.6135
G1 X90.900 Y100.049 E8.6305
G1 X94.049 Y96.900 E8.7638
G1 X93.483 Y96.900 E8.7807
G1 X90.900 Y99.483 E8.8901
G1 X90.900 Y98.918 E8.9070
G1 X92.918 Y96.900 E8.9924
G1 X92.352 Y96.900 E9.0094
G1 X90.900 Y98.352 E9.0708
G1 X90.900 Y97.786 E9.0878
G1 X91.786 Y96.900 E9.1253
G1 X91.221 Y96.900 E9.1422
G1 X90.900 Y97.221 E9.1558
G92 E0.0000
G1 E-0.5000 F6000
; layer 3, Z = 0.580
; feature inner perimeter
G1 Z0.630 F1000
G1 X90.600 Y96.600 F4800
G1 Z0.580 F1000
G1 E0.0000 F6000
G92 E0.0000
G1 X109.400 Y96.600 E0.5628 F1678
G1 X109.400 Y103.400 E0.7663
G1 X90.600 Y103.400 E1.3291
G1 X90.600 Y96.600 E1.5326
; feature outer perimeter
G1 X90.200 Y96.200 F4800
G92 E0.0000
G1 X109.800 Y96.200 E0.5867 F1119
G1 X109.800 Y103.800 E0.8142
G1 X90.200 Y103.800 E1.4009
G1 X90.200 Y96.200 E1.6284
; feature solid layer
G1 X91.221 Y103.100 F4800
G92 E0.0000
G1 X90.900 Y102.779 E0.0136 F1790
G1 X90.900 Y102.214 E0.0305
G1 X91.786 Y103.100 E0.0680
G1 X92.352 Y103.100 E0.0850
G1 X90.900 Y101.648 E0.1464
G1 X90.900 Y101.082 E0.1634
G1 X92.918 Y103.100 E0.2488
G1 X93.483 Y103.100 E0.2657
G1 X90.900 Y100.517 E0.3751
G1 X90.900 Y99.951 E0.3920
G1 X94.049 Y103.100 E0.5253
G1 X94.615 Y103.100 E0.5422
G1 X90.900 Y99.385 E0.6995
G1 X90.900 Y98.820 E0.7164
G1 X95.180 Y103.100 E0.8976
G1 X95.746 Y103.100 E0.9146
G1 X90.900 Y98.254 E1.1197
G1 X90.900 Y97.688 E1.1367
G1 X96.312 Y103.100 E1.3658
G1 X96.877 Y103.100 E1.3827
G1 X90.900 Y97.123 E1.6357
G1 X90.900 Y96.900 E1.6424
G1 X91.243 Y96.900 E1.6527
G1 X97.443 Y103.100 E1.9151
G1 X98.009 Y103.100 E1.9321
G1 X91.809 Y96.900 E2.1945
G1 X92.375 Y96.900 E2.2115
G1 X98.575 Y103.100 E2.4739
G1 X99.140 Y103.100 E2.4909
G1 X92.940 Y96.900 E2.7533
G1 X93.506 Y96.900 E2.7703
G1 X99.706 Y103.100 E3.0327
G1 X100.272 Y103.100 E3.0497
G1 X94.072 Y96.900 E3.3121
G1 X94.637 Y96.900 E3.3291
G1 X100.837 Y103.100 E3.5915
G1 X101.403 Y103.100 E3.6085
G1 X95.203 Y96.900 E3.8709
G1 X95.769 Y96.900 E3.8879
G1 X101.969 Y103.100 E4.1503
G1 X102.534 Y103.100 E4.1673
G1 X96.334 Y96.900 E4.4297
G1 X96.900 Y96.900 E4.4467
G1 X103.100 Y103.100 E4.7091
G1 X103.666 Y103.100 E4.7261
G1 X97.466 Y96.900 E4.9885
G1 X98.031 Y96.900 E5.0055
G1 X104.231 Y103.100 E5.2679
G1 X104.797 Y103.100 E5.2849
G1 X98.597 Y96.900 E5.5473
G1 X99.163 Y96.900 E5.5643
G1 X105.363 Y103.100 E5.8267
G1 X105.928 Y103.100 E5.8437
G1 X99.728 Y96.900 E6.1061
G1 X100.294 Y96.900 E6.1231
G1 X106.494 Y103.100 E6.3855
G1 X107.060 Y103.100 E6.4025
G1 X100.860 Y96.900 E6.6649
G1 X101.425 Y96.900 E6.6819
G1 X107.625 Y103.100 E6.9443
G1 X108.191 Y103.100 E6.9613
G1 X101.991 Y96.900 E7.2237
G1 X102.557 Y96.900 E7.2407
G1 X108.757 Y103.100 E7.5031
G1 X109.100 Y103.100 E7.5134
G1 X109.100 Y102.877 E7.5201
G1 X103.123 Y96.900 E7.7731
G1 X103.688 Y96.900 E7.7900
G1 X109.100 Y102.312 E8.0191
G1 X109.100 Y101.746 E8.0361
G1 X104.254 Y96.900 E8.2412
G1 X104.820 Y96.900 E8.2581
G1 X109.100 Y101.180 E8.4394
G1 X109.100 Y100.615 E8.4563
G1 X105.385 Y96.900 E8.6135
G1 X105.951 Y96.900 E8.6305
G1 X109.100 Y100.049 E8.7638
G1 X109.100 Y99.483 E8.7807
G1 X106.517 Y96.900 E8.8901
G1 X107.082 Y96.900 E8.9070
G1 X109.100 Y98.918 E8.9924
G1 X109.100 Y98.352 E9.0094
G1 X107.648 Y96.900 E9.0708
G1 X108.214 Y96.900 E9.0878
G1 X109.100 Y97.786 E9.1253
G1 X109.100 Y97.221 E9.1422
G1 X108.779 Y96.900 E9.1558
G92 E0.0000
G1 E-0.5000 F6000
; layer 4, Z = 0.780
; feature inner perimeter
G1 Z0.830 F1000
G1 X109.400 Y96.600 F4800
G1 Z0.780 F1000
G1 E0.0000 F6000
G92 E0.0000
G1 X109.400 Y103.400 E0.2036 F1647
G1 X90.600 Y103.400 E0.7663
G1 X90.600 Y96.600 E0.9699
G1 X109.400 Y96.600 E1.5326
; feature outer perimeter
G1 X109.800 Y96.200 F4800
G92 E0.0000
G1 X109.800 Y103.800 E0.2275 F1098
G1 X90.200 Y103.800 E0.8142
G1 X90.200 Y96.200 E1.0417
G1 X109.800 Y96.200 E1.6284
; feature solid layer
G1 X107.056 Y99.166 F4800
G92 E0.0000
